imgs/facebook.svg

<svg width="21" height="20" viewBox="0 0 21 20" fill="none" xmlns="http://www.w3.org/2000/svg">
<path fill-rule="evenodd" clip-rule="evenodd" d="M0.166504 10.0558C0.166504 15.0275 3.77734 19.1617 8.49984 20V12.7775H5.99984V10H8.49984V7.7775C8.49984 5.2775 10.1107 3.88917 12.389 3.88917C13.1107 3.88917 13.889 4 14.6107 4.11083V6.66667H13.3332C12.1107 6.66667 11.8332 7.2775 11.8332 8.05583V10H14.4998L14.0557 12.7775H11.8332V20C16.5557 19.1617 20.1665 15.0283 20.1665 10.0558C20.1665 4.525 15.6665 0 10.1665 0C4.6665 0 0.166504 4.525 0.166504 10.0558Z" fill="#141516"/>
</svg>

<svg width="21" height="20" fill="none" xmlns="http://www.w3.org/2000/svg"><path fill-rule="evenodd" clip-rule="evenodd" d="M.167 10.056c0 4.972 3.61 9.106 8.333 9.944v-7.223H6V10h2.5V7.777c0-2.5 1.61-3.888 3.889-3.888.722 0 1.5.111 2.222.222v2.556h-1.278c-1.222 0-1.5.61-1.5 1.389V10H14.5l-.444 2.777h-2.223V20c4.723-.838 8.333-4.972 8.333-9.944 0-5.531-4.5-10.056-10-10.056s-10 4.525-10 10.056Z" fill="#141516"/></svg>
